X: 1
T:Kittie Lie Over  "Arranged by Terry Tully"
M:6/8
L:1/8
Q:80
C:Traditional Irish
S:Jig
K:HP
|: e|
{g}ec{d}A{g}A{d}ce|
a{g}a{g}a{fg}f2e|
{g}efe{gcecG}c2A|  !
{g}dcd{g}Bcd{g}ec{d}A{g}A{d}ce|
{g}Aa{g}a{fg}f2e|
{g}efe{gcecG}c2B|  !
{g}B{d}A{e}A{g}A2:| |:
B|
{g}c{d}A{e}A{g}BAB|
{g}c{d}A{e}A{gAGAG}A2B|  !
{g}cBc{g}ABc|
{g}dcd{g}Bcd{g}cB{G}A{gfg}f2e|
{g}eac{gdedc}d2e|  !
{g}efe{gcecG}c2B|
{g}B{d}A{e}A{g}A2:|
